!!!OTL: 1804. Zufriedenheit.
!!!ODT: 1880
!!!ARE: Europa, Mitteleuropa, Deutschland, Westfalen; Rheinland; Nassau
!!!SCT: E1804A
!!!TXL: @@DE
!!!YEM: Copyright 1995, estate of Helmut Schaffrath.
**kern	**text
*ICvox	*
*M3/4	*
*k[b-e-]	*
*B-:	*
!LO:TX:a:t=Aus Weſtfalen, Naſſau und vom Rhein 1880.	!
{8f	Ʒu-
=1	=1
8d	-frie-
8f	-denheit
8d	.
8f	iſt
16b-L	mein
16aJ	.
8g	Ver-
=2	=2
4g	-gnügen,
4f	.
8r}	.
{8b-	das
=3	=3
8a	An-
8b-	-dre
8cc	laß
8dd	ich
8ee-	ger-
8dd	-ne
=4	=4
4dd	lie-
4cc	-gen
8r}	.
{8dd	und
=5	=5
8.cc	lie-
16dd	-be
8cc	die
8b-	Ʒufrie-
8a	.
8g	-den-
=6	=6
8.f	-heit,
16g	ja
8f	die
8e-	Ʒufrie-
8d	.
8f	-den-
=7	=7
4b-	-heit
4r}	.
{8b-L	und
8ccJ	.
=8	=8
8dd	lie-
8dd	-be
8dd	die
8ff	Ʒufrie-
16ee-L	.
16ddJ	.
8cc	-den-
=9	=9
4b-	-heit.
4r	.
8r}	.
==	==
!!!AGN: Moral - Lied
!!!ONB: ESAC (Essen Associative Code) Database: ERK3
!!!AMT: simple triple
!!!AIN: vox
!!!EED: Helmut Schaffrath
!!!EEV: 1.0
!!!GTL: Vermischter Inhalt.
!!!URL-scan: https://rosdok.uni-rostock.de/mcrviewer/recordIdentifier/rosdok_ppn745177999/iview2/phys_0581.iview2?x=-4.404412318552431&y=1332.773375118617&scale=0.6456904138606621&rotation=0&layout=singlePageLayout
!!!ENC: Anna Maria Matuszewska
!!!EEV: 2025/08/01
*-	*-
